X:120
T: Peacock's Feather #2
S: De Danann
Z: B.Black
R: hornpipe
M: 4/4
L: 1/8
K: Ddor
AG | F2 E2 D2 DE | FGFA G2 FG | Adde dcAG |\
FDA,B, C2 AG |
F2 E2 D2 DE | FGFA G2 FG | Adde dcAG |\
FDEC D2 :|
AB | c2 cA d2 dA | dcA^F G2 FG | Adde dcAG |\
FDA,B, C2 AG |
F2 E2 D2 DE | FGFA G2 FG | Adde dcAG |\
FDEC D2 :|
